; generated by PrusaSlicer 2.2.0 on 2020-07-09 at 01:18:53 UTC

; 

; external perimeters extrusion width = 0.45mm
; perimeters extrusion width = 0.45mm
; infill extrusion width = 0.45mm
; solid infill extrusion width = 0.45mm
; top infill extrusion width = 0.40mm
; support material extrusion width = 0.35mm
; first layer extrusion width = 0.42mm

M73 P0 R276
M73 Q0 S285
M201 X1000 Y1000 Z200 E5000 ; sets maximum accelerations, mm/sec^2
M203 X200 Y200 Z12 E120 ; sets maximum feedrates, mm/sec
M204 P1250 R1250 T1250 ; sets acceleration (P, T) and retract acceleration (R), mm/sec^2
M205 X8.00 Y8.00 Z0.40 E4.50 ; sets the jerk limits, mm/sec
M205 S0 T0 ; sets the minimum extruding and travel feed rate, mm/sec
M107
M862.3 P "MK3S" ; printer model check
M862.1 P0.4 ; nozzle diameter check
M115 U3.9.0 ; tell printer latest fw version
G90 ; use absolute coordinates
M83 ; extruder relative mode
M104 S215 ; set extruder temp
M140 S60 ; set bed temp
M190 S60 ; wait for bed temp
M109 S215 ; wait for extruder temp
G28 W ; home all without mesh bed level
G80 ; mesh bed leveling
G1 Y-3.0 F1000.0 ; go outside print area
G92 E0.0
G1 X60.0 E9.0 F1000.0 ; intro line
M73 Q0 S285
M73 P0 R276
G1 X100.0 E12.5 F1000.0 ; intro line
G92 E0.0
M221 S95
G21 ; set units to millimeters
G90 ; use absolute coordinates
M83 ; use relative distances for extrusion
M900 K0.06 ; Filament gcode LA 1.5
M900 K30 ; Filament gcode LA 1.0
;BEFORE_LAYER_CHANGE
G92 E0.0
;0.2


G1 E-0.80000 F2100.00000
G1 Z0.600 F10800.000
;AFTER_LAYER_CHANGE
;0.2
G1 X20.264 Y108.041
G1 Z0.200
G1 E0.80000 F2100.00000
M204 S1000
G1 F1200.000
G1 X20.636 Y107.455 E0.02178
G1 X21.166 Y107.000 E0.02190
G1 X25.834 Y104.418 E0.16725
G1 X26.331 Y104.219 E0.01680
G1 X51.759 Y99.683 E0.80985
G1 X119.355 Y88.033 E2.15066
G1 X130.308 Y88.005 E0.34343
G1 X197.809 Y99.683 E2.14790
G1 X223.728 Y104.406 E0.82605
G1 X228.796 Y106.976 E0.17817
G1 X229.347 Y107.436 E0.02249
G1 X229.737 Y108.042 E0.02260
G1 X229.943 Y108.984 E0.03024
G1 X229.943 Y117.486 E0.26656
G1 X229.841 Y118.147 E0.02095
G1 X229.513 Y118.822 E0.02355
G1 X228.991 Y119.362 E0.02355
G1 X228.326 Y119.712 E0.02355
G1 X227.586 Y119.836 E0.02355
G1 X22.434 Y119.837 E6.43238
G1 X21.671 Y119.711 E0.02426
G1 X20.992 Y119.349 E0.02414
G1 X20.464 Y118.789 E0.02414
G1 X20.141 Y118.085 E0.02426
G1 X20.057 Y117.483 E0.01906
G1 X20.057 Y108.979 E0.26664
G1 X20.251 Y108.100 E0.02824
G1 F8640.000
G1 X20.636 Y107.455 E-0.17345
G1 X21.166 Y107.000 E-0.16124
G1 X22.778 Y106.108 E-0.42530
G1 E-0.04000 F2100.00000
G1 Z0.800 F10800.000
G1 X43.556 Y120.025
G1 Z0.200
G1 E0.80000 F2100.00000
G1 F1200.000
G1 X43.432 Y120.235 E0.00764
G1 X42.566 Y121.125 E0.03893
G1 X41.585 Y121.742 E0.03634
G1 X39.967 Y122.192 E0.05265
G1 X23.595 Y122.192 E0.51335
G1 X23.320 Y122.162 E0.00866
G1 X21.526 Y122.140 E0.05626
G1 X20.379 Y121.823 E0.03731
G1 X19.221 Y121.106 E0.04271
G1 X18.266 Y120.038 E0.04492
G1 X17.656 Y118.689 E0.04643
G1 X17.532 Y117.859 E0.02631
G1 X17.532 Y108.611 E0.28995
G1 X17.901 Y107.093 E0.04898
G1 X18.560 Y105.979 E0.04059
G1 X19.534 Y105.037 E0.04248
G1 X21.044 Y104.285 E0.05289
G1 X22.013 Y104.114 E0.03086
G1 X22.720 Y104.108 E0.02215
G1 X23.008 Y103.631 E0.01746
G1 X24.008 Y102.657 E0.04378
G1 X25.608 Y101.903 E0.05546
G1 X26.308 Y101.803 E0.02218
G1 X27.112 Y101.806 E0.02519
G1 X27.367 Y101.779 E0.00803
G1 X36.377 Y101.779 E0.28252
G1 X36.660 Y101.311 E0.01715
G1 X37.629 Y100.375 E0.04225
G1 X39.243 Y99.592 E0.05624
G1 X39.965 Y99.473 E0.02294
G1 X40.776 Y99.447 E0.02544
G1 X40.996 Y99.462 E0.00694
G1 X48.006 Y99.453 E0.21979
G1 X48.223 Y99.085 E0.01337
G1 X49.082 Y98.199 E0.03871
G1 X50.064 Y97.577 E0.03644
G1 X51.493 Y97.149 E0.04677
G1 X52.867 Y97.121 E0.04308
G1 X61.990 Y97.122 E0.28605
G1 X62.273 Y96.654 E0.01714
G1 X63.267 Y95.702 E0.04318
G1 X64.265 Y95.146 E0.03581
G1 X65.457 Y94.823 E0.03870
G1 X66.424 Y94.792 E0.03034
G1 X76.359 Y94.793 E0.31151
G1 X76.661 Y94.298 E0.01818
G1 X77.686 Y93.335 E0.04413
G1 X78.683 Y92.797 E0.03551
G1 X79.749 Y92.505 E0.03466
G1 X81.533 Y92.465 E0.05595
G1 X89.924 Y92.465 E0.26308
G1 X90.159 Y92.071 E0.01437
G1 X91.194 Y91.056 E0.04546
G1 X92.183 Y90.499 E0.03562
G1 X93.309 Y90.181 E0.03668
G1 X95.100 Y90.136 E0.05615
G1 X103.901 Y90.136 E0.27598
G1 X104.166 Y89.694 E0.01615
G1 X105.058 Y88.806 E0.03947
G1 X106.597 Y88.006 E0.05440
G1 X107.631 Y87.812 E0.03296
G1 X115.575 Y87.809 E0.24909
G1 X115.877 Y87.313 E0.01821
G1 X116.903 Y86.349 E0.04414
G1 X117.858 Y85.828 E0.03412
G1 X118.867 Y85.534 E0.03293
G1 X120.751 Y85.479 E0.05911
G1 X129.816 Y85.491 E0.28424
G1 X130.034 Y85.476 E0.00685
G1 X130.907 Y85.502 E0.02738
G1 X132.031 Y85.772 E0.03624
G1 X133.074 Y86.314 E0.03685
G1 X134.146 Y87.310 E0.04590
G1 X134.450 Y87.808 E0.01828
G1 X141.963 Y87.808 E0.23557
G1 X142.954 Y87.976 E0.03152
G1 X144.578 Y88.799 E0.05709
G1 X145.478 Y89.693 E0.03976
G1 X145.744 Y90.138 E0.01625
G1 X155.920 Y90.177 E0.31906
G1 X157.225 Y90.571 E0.04275
G1 X158.207 Y91.177 E0.03618
G1 X159.107 Y92.094 E0.04030
G1 X159.327 Y92.465 E0.01352
G1 X167.701 Y92.465 E0.26255
G1 X170.668 Y92.509 E0.09306
G1 X171.746 Y92.811 E0.03510
G1 X172.708 Y93.335 E0.03434
G1 X173.733 Y94.298 E0.04411
G1 X174.036 Y94.796 E0.01826
G1 X184.519 Y94.827 E0.32868
G1 X185.619 Y95.114 E0.03563
G1 X186.596 Y95.630 E0.03466
G1 X187.667 Y96.625 E0.04584
G1 X187.970 Y97.122 E0.01826
G1 X197.875 Y97.122 E0.31057
G1 X199.493 Y97.573 E0.05265
G1 X200.474 Y98.190 E0.03634
G1 X201.340 Y99.079 E0.03893
G1 X201.560 Y99.451 E0.01352
G1 X208.460 Y99.450 E0.21635
G1 X210.728 Y99.587 E0.07125
G1 X211.642 Y99.938 E0.03068
G1 X212.454 Y100.447 E0.03006
G1 X213.393 Y101.391 E0.04174
G1 X213.624 Y101.779 E0.01417
G1 X222.035 Y101.778 E0.26371
G1 X224.303 Y101.916 E0.07125
G1 X225.217 Y102.266 E0.03068
G1 X226.029 Y102.776 E0.03006
G1 X226.968 Y103.719 E0.04174
G1 X227.212 Y104.132 E0.01504
G1 X228.456 Y104.171 E0.03903
G1 X229.487 Y104.480 E0.03375
G1 X230.459 Y105.032 E0.03506
G1 X231.294 Y105.807 E0.03570
G1 X231.951 Y106.772 E0.03661
G1 X232.468 Y108.541 E0.05779
G1 X232.468 Y117.869 E0.29246
G1 X232.284 Y118.885 E0.03240
G1 X231.683 Y120.114 E0.04289
G1 X230.769 Y121.116 E0.04251
G1 X229.620 Y121.824 E0.04231
G1 X228.517 Y122.135 E0.03595
G1 X227.431 Y122.163 E0.03405
G1 X227.158 Y122.192 E0.00859
G1 X225.740 Y122.192 E0.04446
G1 X225.136 Y122.167 E0.01898
G1 X224.896 Y122.192 E0.00755
G1 X221.970 Y122.192 E0.09175
G1 X221.365 Y122.167 E0.01898
G1 X221.125 Y122.192 E0.00755
G1 X210.498 Y122.192 E0.33320
G1 X208.880 Y121.742 E0.05265
G1 X207.899 Y121.125 E0.03634
G1 X207.033 Y120.235 E0.03893
G1 X206.909 Y120.025 E0.00764
G1 F8640.000
G1 X207.033 Y120.235 E-0.05628
G1 X207.899 Y121.125 E-0.28669
G1 X208.880 Y121.742 E-0.26759
G1 X209.504 Y121.915 E-0.14944
G1 E-0.04000 F2100.00000
G1 Z0.800 F10800.000
G1 X195.159 Y119.648
G1 Z0.200
G1 E0.80000 F2100.00000
G1 F1200.000
G1 X194.651 Y119.506 E0.01655
G1 X193.623 Y118.923 E0.03707
G1 X192.668 Y118.000 E0.04163
G1 X192.388 Y117.535 E0.01703
G1 X184.969 Y117.535 E0.23263
G1 X183.933 Y117.355 E0.03297
G1 X182.299 Y116.508 E0.05768
G1 X181.445 Y115.648 E0.03802
G1 X181.180 Y115.205 E0.01618
G1 X170.375 Y115.194 E0.33880
G1 X169.079 Y114.865 E0.04192
G1 X167.999 Y114.258 E0.03886
G1 X167.003 Y113.275 E0.04385
G1 X166.765 Y112.876 E0.01456
G1 X156.386 Y112.865 E0.32542
G1 X154.826 Y112.412 E0.05095
G1 X153.836 Y111.776 E0.03688
G1 X153.007 Y110.915 E0.03747
G1 X152.789 Y110.544 E0.01350
G1 X142.100 Y110.467 E0.33515
G1 X140.980 Y110.089 E0.03704
G1 X140.014 Y109.473 E0.03594
G1 X139.154 Y108.586 E0.03872
G1 X138.939 Y108.221 E0.01330
G1 X132.034 Y108.222 E0.21650
G1 X130.163 Y108.103 E0.05876
G1 X129.218 Y107.761 E0.03152
G1 X128.372 Y107.241 E0.03113
G1 X127.476 Y106.367 E0.03923
G1 X127.185 Y105.883 E0.01773
G1 X122.374 Y105.890 E0.15084
G1 X122.154 Y106.263 E0.01359
G1 X121.253 Y107.181 E0.04032
G1 X120.259 Y107.791 E0.03657
G1 X118.791 Y108.206 E0.04781
G1 X111.180 Y108.219 E0.23864
G1 X110.964 Y108.587 E0.01337
G1 X110.098 Y109.477 E0.03894
G1 X109.081 Y110.114 E0.03763
G1 X107.767 Y110.510 E0.04302
G1 X96.718 Y110.548 E0.34645
G1 X96.415 Y111.045 E0.01823
G1 X95.390 Y112.008 E0.04410
G1 X94.436 Y112.528 E0.03407
G1 X93.428 Y112.822 E0.03293
G1 X91.543 Y112.878 E0.05913
G1 X83.157 Y112.878 E0.26294
G1 X82.942 Y113.244 E0.01331
G1 X82.078 Y114.133 E0.03887
G1 X81.080 Y114.763 E0.03699
G1 X79.887 Y115.143 E0.03926
G1 X69.259 Y115.203 E0.33326
G1 X68.991 Y115.650 E0.01632
G1 X68.092 Y116.544 E0.03976
G1 X66.468 Y117.367 E0.05709
G1 X65.477 Y117.535 E0.03152
G1 X57.516 Y117.535 E0.24960
G1 X57.300 Y117.901 E0.01331
G1 X56.439 Y118.788 E0.03877
G1 X55.461 Y119.410 E0.03634
G1 X54.744 Y119.648 E0.02368
G1 F8640.000
G1 X55.461 Y119.410 E-0.17439
G1 X56.439 Y118.788 E-0.26765
G1 X57.300 Y117.901 E-0.28548
G1 X57.372 Y117.779 E-0.03247
G1 E-0.04000 F2100.00000
G1 Z0.800 F10800.000
G1 X43.338 Y119.648
G1 Z0.200
G1 E0.80000 F2100.00000
G1 F1200.000
G1 X43.432 Y119.483 E0.00595
G1 X54.239 Y119.419 E0.33886
G1 X55.319 Y119.060 E0.03570
G1 X56.216 Y118.483 E0.03343
G1 X57.011 Y117.658 E0.03593
G1 X57.294 Y117.158 E0.01801
G1 X65.460 Y117.158 E0.25605
G1 X66.376 Y117.000 E0.02913
G1 X67.847 Y116.255 E0.05170
G1 X68.707 Y115.401 E0.03800
G1 X69.039 Y114.827 E0.02079
G1 X79.800 Y114.775 E0.33742
G1 X80.942 Y114.411 E0.03758
G1 X81.855 Y113.827 E0.03399
G1 X82.652 Y113.001 E0.03600
G1 X82.935 Y112.501 E0.01801
G1 X91.540 Y112.501 E0.26981
G1 X93.392 Y112.446 E0.05808
G1 X94.308 Y112.173 E0.02998
G1 X95.187 Y111.690 E0.03143
G1 X96.135 Y110.791 E0.04098
G1 X96.500 Y110.171 E0.02253
G1 X107.685 Y110.141 E0.35069
G1 X108.947 Y109.761 E0.04134
G1 X109.877 Y109.171 E0.03451
G1 X110.675 Y108.344 E0.03605
G1 X110.958 Y107.842 E0.01806
G1 X118.714 Y107.837 E0.24317
G1 X120.130 Y107.436 E0.04615
G1 X121.033 Y106.874 E0.03336
G1 X121.865 Y106.019 E0.03739
G1 X122.152 Y105.513 E0.01823
G1 X127.403 Y105.505 E0.16464
G1 X127.760 Y106.117 E0.02221
G1 X128.588 Y106.931 E0.03641
G1 X129.398 Y107.429 E0.02982
G1 X130.264 Y107.738 E0.02883
G1 X132.039 Y107.845 E0.05574
G1 X139.161 Y107.844 E0.22330
G1 X139.444 Y108.343 E0.01800
G1 X140.238 Y109.168 E0.03589
G1 X141.124 Y109.740 E0.03305
G1 X142.192 Y110.100 E0.03535
G1 X153.011 Y110.168 E0.33925
G1 X153.296 Y110.672 E0.01814
G1 X154.092 Y111.498 E0.03596
G1 X155.005 Y112.080 E0.03395
G1 X156.413 Y112.488 E0.04597
G1 X166.986 Y112.499 E0.33150
G1 X167.288 Y113.027 E0.01908
G1 X168.208 Y113.943 E0.04067
G1 X169.198 Y114.506 E0.03573
G1 X170.399 Y114.817 E0.03890
G1 X181.400 Y114.828 E0.34492
G1 X181.730 Y115.401 E0.02072
G1 X182.546 Y116.222 E0.03629
G1 X184.027 Y116.989 E0.05228
G1 X184.985 Y117.158 E0.03053
G1 X192.607 Y117.158 E0.23897
G1 X192.951 Y117.749 E0.02146
G1 X193.832 Y118.608 E0.03857
G1 X194.777 Y119.150 E0.03417
G1 X195.814 Y119.445 E0.03381
G1 X198.439 Y119.487 E0.08229
G1 X207.035 Y119.486 E0.26954
G1 X207.127 Y119.648 E0.00583
G1 X207.355 Y120.025 F10800.000
G1 F1200.000
G1 X208.153 Y120.845 E0.03587
M73 Q0 S284
G1 X209.056 Y121.407 E0.03335
G1 X210.524 Y121.815 E0.04775
G1 X221.114 Y121.815 E0.33206
M73 P0 R275
G1 X221.352 Y121.789 E0.00748
G1 X221.974 Y121.815 E0.01952
G1 X224.885 Y121.815 E0.09129
G1 X225.122 Y121.789 E0.00748
G1 X225.744 Y121.815 E0.01952
G1 X227.148 Y121.815 E0.04400
G1 X227.406 Y121.786 E0.00816
G1 X228.440 Y121.765 E0.03243
G1 X229.447 Y121.488 E0.03276
G1 X230.509 Y120.841 E0.03897
G1 X231.386 Y119.881 E0.04078
G1 X231.933 Y118.746 E0.03950
G1 X232.091 Y117.853 E0.02845
G1 X232.091 Y108.568 E0.29111
G1 X231.622 Y106.958 E0.05256
G1 X231.020 Y106.067 E0.03371
G1 X230.252 Y105.348 E0.03299
G1 X229.358 Y104.835 E0.03233
G1 X228.373 Y104.539 E0.03225
G1 X226.988 Y104.504 E0.04342
G1 X226.681 Y103.965 E0.01945
G1 X225.810 Y103.084 E0.03887
G1 X225.032 Y102.596 E0.02878
G1 X224.197 Y102.279 E0.02802
G1 X222.030 Y102.155 E0.06806
G1 X213.403 Y102.156 E0.27049
G1 X213.107 Y101.637 E0.01876
G1 X212.235 Y100.755 E0.03887
G1 X211.457 Y100.267 E0.02878
G1 X210.622 Y99.950 E0.02802
G1 X208.455 Y99.827 E0.06806
G1 X201.338 Y99.828 E0.22315
G1 X201.052 Y99.324 E0.01817
G1 X200.220 Y98.469 E0.03739
G1 X199.317 Y97.907 E0.03335
G1 X197.850 Y97.499 E0.04775
G1 X187.753 Y97.499 E0.31658
G1 X187.388 Y96.880 E0.02253
G1 X186.397 Y95.951 E0.04258
G1 X185.463 Y95.458 E0.03315
G1 X184.449 Y95.198 E0.03282
G1 X173.819 Y95.172 E0.33329
G1 X173.454 Y94.552 E0.02256
G1 X172.505 Y93.653 E0.04098
G1 X171.622 Y93.168 E0.03161
G1 X170.637 Y92.886 E0.03210
G1 X167.699 Y92.842 E0.09213
G1 X159.376 Y92.842 E0.26098
G1 X159.076 Y92.790 F10800.000
G1 F1200.000
G1 X158.819 Y92.338 E0.01630
G1 X157.987 Y91.484 E0.03738
G1 X157.092 Y90.924 E0.03311
G1 X155.837 Y90.546 E0.04109
G1 X145.928 Y90.516 E0.31070
G1 X145.480 Y90.438 F10800.000
G1 F1200.000
G1 X145.193 Y89.942 E0.01797
G1 X144.334 Y89.088 E0.03800
G1 X142.863 Y88.343 E0.05170
G1 X141.947 Y88.185 E0.02913
G1 X134.233 Y88.185 E0.24187
G1 X133.868 Y87.566 E0.02254
G1 X132.875 Y86.636 E0.04264
G1 X131.918 Y86.133 E0.03389
G1 X130.876 Y85.879 E0.03365
G1 X130.033 Y85.853 E0.02644
G1 X129.830 Y85.868 E0.00638
G1 X120.753 Y85.856 E0.28461
G1 X118.947 Y85.904 E0.05664
G1 X118.020 Y86.169 E0.03023
G1 X117.105 Y86.668 E0.03268
G1 X116.157 Y87.567 E0.04097
G1 X115.792 Y88.186 E0.02252
G1 X107.649 Y88.189 E0.25533
G1 X106.695 Y88.371 E0.03044
G1 X105.304 Y89.093 E0.04916
G1 X104.451 Y89.943 E0.03775
G1 X104.151 Y90.462 E0.01879
G1 X103.851 Y90.514 F10800.000
G1 F1200.000
G1 X95.101 Y90.513 E0.27435
G1 X93.389 Y90.551 E0.05372
G1 X92.308 Y90.855 E0.03519
G1 X91.403 Y91.371 E0.03268
G1 X90.443 Y92.320 E0.04230
G1 X90.145 Y92.842 E0.01886
G1 X81.535 Y92.842 E0.26994
G1 X79.782 Y92.881 E0.05499
G1 X78.806 Y93.154 E0.03177
G1 X77.889 Y93.654 E0.03275
G1 X76.940 Y94.552 E0.04097
G1 X76.576 Y95.171 E0.02249
G1 X66.427 Y95.169 E0.31824
G1 X65.491 Y95.199 E0.02934
G1 X64.389 Y95.503 E0.03587
G1 X63.474 Y96.018 E0.03290
G1 X62.555 Y96.906 E0.04008
G1 X62.209 Y97.499 E0.02153
G1 X52.869 Y97.498 E0.29285
G1 X51.527 Y97.526 E0.04207
G1 X50.199 Y97.930 E0.04351
G1 X49.306 Y98.504 E0.03331
G1 X48.512 Y99.328 E0.03587
G1 X48.228 Y99.829 E0.01806
G1 X40.983 Y99.839 E0.22718
G1 X40.777 Y99.824 E0.00646
G1 X39.989 Y99.849 E0.02472
G1 X39.332 Y99.959 E0.02091
G1 X37.869 Y100.667 E0.05094
G1 X36.942 Y101.563 E0.04045
G1 X36.595 Y102.156 E0.02153
G1 X27.377 Y102.156 E0.28902
G1 X27.132 Y102.184 E0.00776
G1 X26.348 Y102.178 E0.02458
G1 X25.689 Y102.272 E0.02085
G1 X24.249 Y102.950 E0.04991
G1 X23.290 Y103.883 E0.04195
G1 X22.938 Y104.484 E0.02186
G1 X22.063 Y104.488 E0.02745
G1 X21.137 Y104.652 E0.02947
G1 X19.730 Y105.360 E0.04939
G1 X18.842 Y106.230 E0.03897
G1 X18.241 Y107.259 E0.03738
G1 X17.909 Y108.633 E0.04433
G1 X17.909 Y117.844 E0.28881
G1 X18.024 Y118.606 E0.02414
G1 X18.596 Y119.854 E0.04305
G1 X19.481 Y120.832 E0.04137
G1 X20.552 Y121.487 E0.03934
G1 X21.600 Y121.770 E0.03404
G1 X23.343 Y121.785 E0.05466
G1 X23.606 Y121.815 E0.00829
G1 X39.942 Y121.815 E0.51221
G1 X41.409 Y121.407 E0.04775
G1 X42.312 Y120.845 E0.03335
G1 X43.110 Y120.025 E0.03587
G1 X42.909 Y119.648 F10800.000
G1 F1200.000
G1 X43.206 Y119.107 E0.01936
G1 X54.148 Y119.051 E0.34308
G1 X55.177 Y118.710 E0.03399
G1 X55.991 Y118.180 E0.03046
G1 X56.720 Y117.416 E0.03309
G1 X57.069 Y116.781 E0.02273
G1 X65.444 Y116.781 E0.26258
G1 X66.284 Y116.634 E0.02673
G1 X67.602 Y115.967 E0.04634
G1 X68.422 Y115.153 E0.03621
G1 X68.816 Y114.451 E0.02524
G1 X79.713 Y114.407 E0.34167
G1 X80.803 Y114.059 E0.03587
G1 X81.631 Y113.523 E0.03094
G1 X82.362 Y112.759 E0.03314
G1 X82.710 Y112.124 E0.02273
G1 X91.538 Y112.124 E0.27679
G1 X93.310 Y112.077 E0.05557
G1 X94.145 Y111.832 E0.02729
G1 X94.983 Y111.371 E0.02999
G1 X95.854 Y110.538 E0.03779
G1 X96.280 Y109.795 E0.02686
G1 X107.602 Y109.772 E0.35502
G1 X108.813 Y109.407 E0.03963
G1 X109.653 Y108.867 E0.03133
G1 X110.384 Y108.102 E0.03317
G1 X110.734 Y107.465 E0.02278
G1 X118.636 Y107.467 E0.24779
G1 X120.001 Y107.081 E0.04445
G1 X120.812 Y106.568 E0.03010
G1 X121.575 Y105.777 E0.03447
G1 X121.927 Y105.137 E0.02290
G1 X127.624 Y105.128 E0.17861
